X:05
T:Sheffield Hornpipe. JBu.05
O:England,South Yorkshire
S:Joshua Burnett's MS,c1835,S.Yorkshire
M:C
L:1/8
Q:1/2=90
R:.hornpipe
Z:vmp.R.Greig.2010
K:G
G2|EGDG EGDG|GFGAB2GB|cBAG GFGA|B2A2A3G|
EGDG EGDG|GFGAB2GB|cBAG GFGA|B2G2G2:|
|:df|gdBd GdBd|gdBd GdBd|cBAG GFGA|B2A2A3G|
EGDG EGDG|GFGAB2GB|cBAG GFGA|B2G2G2:|

